X:250
M:4/4
L:1/4
K:G
G | F E D G | B A G G | A B c A | B3 B | A G F G | E E D D | G A B A | G3 D | G A B G | c c B G | E F G A | G3 G | B c d d | e e d !sintro!B | A B c A | G3 !eintro!|]
